public/assets/images/icons/grey/visibility-invisible/news2.svg

<svg width="16" height="16" xmlns="http://www.w3.org/2000/svg" viewBox="0 0 16 16" shape-rendering="geometricPrecision" fill="#6e6e6e"><defs><mask id="a"><rect fill="#fff" width="100%" height="100%"/><path d="M12.997.858a4.809 4.809 0 0 0-4.253 2.563 4.81 4.81 0 0 0 8.506 0A4.812 4.812 0 0 0 12.997.858z" fill="#000"/></mask></defs><path d="M12.997 1.611a3.394 3.394 0 0 0-3.003 1.81 3.397 3.397 0 0 0 6.006 0 3.398 3.398 0 0 0-3.003-1.81zm-.001 3.396a1.587 1.587 0 1 1 0-3.174 1.587 1.587 0 0 1 0 3.174z" fill="#cb1800"/><path d="M6.136 14.063l7.86-6.878-3.255-1.741-4.605 8.619zM0 4.568l4.147 11.214.838-1.57-1.421-3.844 4.331-1.602 2.457-4.6 4.406 2.352.003-.003L12.35-.002 0 4.568zm7.985 2.478l-4.97 1.838-.397-1.074 4.97-1.839.397 1.075zm4.073-4.002L2.204 6.688l-.398-1.074 9.854-3.646.398 1.076z" mask="url(#a)"/></svg>

<?xml version="1.0"?><!DOCTYPE svg PUBLIC "-//W3C//DTD SVG 1.1//EN" "http://www.w3.org/Graphics/SVG/1.1/DTD/svg11.dtd"><svg width="16px" height="16px" xmlns="http://www.w3.org/2000/svg" viewBox="0 0 16 16" shape-rendering="geometricPrecision" fill="#6e6e6e"><defs><mask id="visibility-invisible-path"><rect fill="#fff" width="100%" height="100%"/><path d="M12.997,0.858c-1.845,0-3.446,1.039-4.253,2.563c0.808,1.523,2.408,2.562,4.253,2.562 c1.844,0,3.444-1.039,4.253-2.562C16.441,1.897,14.841,0.858,12.997,0.858z" fill="#000"/></mask></defs><g id="visibility-invisible" display="inline" fill="#cb1800"><g><g><path d="M12.997,1.611c-1.303,0-2.433,0.733-3.003,1.81c0.57,1.075,1.7,1.809,3.003,1.809c1.302,0,2.432-0.733,3.003-1.809 C15.429,2.345,14.299,1.611,12.997,1.611z M12.996,5.007c-0.876,0-1.587-0.71-1.587-1.586c0-0.877,0.711-1.588,1.587-1.588 c0.877,0,1.588,0.711,1.588,1.588C14.584,4.297,13.873,5.007,12.996,5.007z"/></g></g></g><g mask="url(#visibility-invisible-path)"><path d="M6.136,14.063l7.86-6.878l-3.255-1.741L6.136,14.063z M0,4.568l4.147,11.214l0.838-1.57l-1.421-3.844 l4.331-1.602l2.457-4.6l4.406,2.352l0.003-0.003l-2.411-6.517L0,4.568z M7.985,7.046l-4.97,1.838L2.618,7.81l4.97-1.839 L7.985,7.046z M12.058,3.044L2.204,6.688L1.806,5.614l9.854-3.646L12.058,3.044z"/></g></svg>
